archdroid-icon-theme/Archdroid-BrownDark/status/scalable/checkbox-checked.svg

<?xml version="1.0" encoding="UTF-8" standalone="no"?>
<svg
   xmlns:dc="http://purl.org/dc/elements/1.1/"
   xmlns:cc="http://creativecommons.org/ns#"
   xmlns:rdf="http://www.w3.org/1999/02/22-rdf-syntax-ns#"
   xmlns:svg="http://www.w3.org/2000/svg"
   xmlns="http://www.w3.org/2000/svg"
   xmlns:sodipodi="http://sodipodi.sourceforge.net/DTD/sodipodi-0.dtd"
   xmlns:inkscape="http://www.inkscape.org/namespaces/inkscape"
   width="48"
   height="48"
   viewBox="0 0 48 48"
   id="svg2"
   version="1.1"
   inkscape:version="0.91 r13725"
   sodipodi:docname="checkbox-checked.svg"
   style="fill:#3E2723">
  <metadata
     id="metadata10">
    <rdf:RDF>
      <cc:Work
         rdf:about="">
        <dc:format>image/svg+xml</dc:format>
        <dc:type
           rdf:resource="http://purl.org/dc/dcmitype/StillImage" />
        <dc:title></dc:title>
      </cc:Work>
    </rdf:RDF>
  </metadata>
  <defs
     id="defs8" />
  <sodipodi:namedview
     pagecolor="#ffffff"
     bordercolor="#666666"
     borderopacity="1"
     objecttolerance="10"
     gridtolerance="10"
     guidetolerance="10"
     inkscape:pageopacity="0"
     inkscape:pageshadow="2"
     inkscape:window-width="1366"
     inkscape:window-height="713"
     id="namedview6"
     showgrid="false"
     fit-margin-top="0"
     fit-margin-left="0"
     fit-margin-right="0"
     fit-margin-bottom="0"
     inkscape:zoom="2.127695873165257"
     inkscape:cx="-18.67138819506943"
     inkscape:cy="-49.99717197929309"
     inkscape:window-x="0"
     inkscape:window-y="30"
     inkscape:window-maximized="1"
     inkscape:current-layer="svg2" />
  <path
     d="M 10,6 C 7.79,6 6.000000000000001,7.79 6,10 l 0,28 c 0,2.21 1.790000000000001,4 4,4 l 28,0 c 2.21,0 4,-1.79 4,-4 L 42,10 C 42,7.79 40.21,6 38,6 L 10,6 Z m 0,4 28,0 0,28 -28,0 0,-28 z M 33.57421875,15.5859375 20.572265625,27.841796875 14.42578125,22.048828125 12,24.3359375 20.572265625,32.4140625 36,17.87109375 33.57421875,15.5859375 Z"
     id="path4"
     inkscape:connector-curvature="0" />
</svg>

<svg xmlns="http://www.w3.org/2000/svg" viewBox="0 0 48 48" fill="#3E2723"><path d="m10 6c-2.21 0-4 1.79-4 4v28c0 2.21 1.79 4 4 4h28c2.21 0 4-1.79 4-4v-28c0-2.21-1.79-4-4-4h-28m0 4h28v28h-28v-28zm23.574 5.586l-13 12.256-6.146-5.793-2.426 2.287 8.572 8.08 15.428-14.543-2.426-2.285"/></svg>
